!!!COM: Mozart
!!!OTL: 12 Variations on "Ah Vous dirais-je, Maman" for the Piano
!!!Variation: 9 b
**function	**harm	**kern	**kern
*	*	*clefF4	*clefG2
*	*	*k[]	*k[]
*M2/4	*M2/4	*M2/4	*M2/4
*C:	*C:	*C:	*C:
=225	=225	=225	=225
2D	2V	2r	4gg'
.	.	.	4gg'
=226	=226	=226	=226
2D	2V7	2r	4ff'
.	.	.	4ff'
*	*	*clefG2	*
=227	=227	=227	=227
2D	2Ic	4g' 4cc'	4ee
.	.	4g' 4cc'	(8.eeL
.	.	.	16ffJk)
=228	=228	=228	=228
2D	2V7d	4f' 4b'	(4ee
.	.	4f' 4b'	4dd)
*	*	*clefF4	*
=229	=229	=229	=229
*	*	*	*^
2D	2Ic	4G' 4e'	4cc	2g
.	.	4G' 4e'	[4cc	.
=230	=230	=230	=230	=230
2D	2V7d	4F' 4d'	8ccL]	2g
.	.	.	8bJ	.
.	.	4F' 4d'	8aL	.
.	.	.	8bJ	.
=231	=231	=231	=231	=231
2D	2Ic	4GG' 4E'	8ccL	2g
.	.	.	8cc'J	.
.	.	4GG' 4E'	8dd'L	.
.	.	.	8ee'J	.
=232	=232	=232	=232	=232
2D	2V7d	4FF' 4D'	8ff'L	4g
.	.	.	8gg'J	.
.	.	4FF' 4D'	8aa'L	4r
.	.	.	8bb'J	.
*	*	*	*v	*v
*-	*-	*-	*-
